icons/op-attention-24.svg

<svg width="24" height="24" viewBox="0 0 24 24" fill="none" xmlns="http://www.w3.org/2000/svg">
<path d="M12.1569 17.7725C11.4667 17.7725 10.9333 17.2078 10.9333 16.549C10.9333 15.8588 11.4667 15.3255 12.1569 15.3255C12.8157 15.3255 13.3804 15.8588 13.3804 16.549C13.3804 17.2078 12.8157 17.7725 12.1569 17.7725ZM12.8471 13.5059C12.8157 13.7569 12.7843 13.7882 12.5647 13.7882H11.7176C11.5294 13.7882 11.4667 13.7569 11.4353 13.5059L11.1216 7.82745C11.0902 7.57647 11.0902 7.63922 11.0902 7.5451C11.0902 7.35686 11.2471 7.35686 11.3412 7.35686H12.9098C13.0039 7.35686 13.1922 7.35686 13.1922 7.5451V7.82745L12.8471 13.5059ZM12 4C7.57647 4 4 7.57647 4 12C4 16.4235 7.57647 20 12 20C16.4235 20 20 16.4235 20 12C20 7.57647 16.4235 4 12 4ZM12 18.8078C8.23529 18.8078 5.19216 15.7647 5.19216 12C5.19216 8.23529 8.23529 5.19216 12 5.19216C15.7647 5.19216 18.8078 8.23529 18.8078 12C18.8078 15.7647 15.7647 18.8078 12 18.8078Z" fill="black"/>
</svg>

<svg xmlns="http://www.w3.org/2000/svg" width="24" height="24" viewBox="0 0 24 24"><path d="M12.157 17.773c-.69 0-1.224-.565-1.224-1.224 0-.69.534-1.224 1.224-1.224.659 0 1.223.534 1.223 1.224 0 .659-.564 1.224-1.223 1.224Zm.69-4.267c-.031.251-.063.282-.282.282h-.847c-.189 0-.251-.031-.283-.282l-.313-5.679c-.032-.251-.032-.188-.032-.282 0-.188.157-.188.251-.188h1.569c.094 0 .282 0 .282.188v.282l-.345 5.679ZM12 4c-4.424 0-8 3.576-8 8 0 4.424 3.576 8 8 8 4.424 0 8-3.576 8-8 0-4.424-3.576-8-8-8Zm0 14.808A6.802 6.802 0 0 1 5.192 12 6.802 6.802 0 0 1 12 5.192 6.802 6.802 0 0 1 18.808 12 6.802 6.802 0 0 1 12 18.808Z"/></svg>
